X:195
%%pagewidth 9in
%%vocalfont Baskerville10Pro 14
%%pos vol above
T:Three merry boys are we
M:6/8
L:1/8
K:Bb
%%score 1 2
V:1 clef-treble
V:2 clef-bass octave=-1
[V:1]B,|B,2B, B,2B,|F3-F2F & B,2x4|[B,G]2G [EA]2F|[DB]3-[DB]2B|
w:The wise men were but seven,* Nor more shall be for me;* The
[V:2]z|[B,,B,]2zz3|[D,D]2zz3|[E,E]2z[C,C]2z|[B,,B,]3-[B,,B,]2z|
[V:1][B,B]2B [DF]2G|A3-A2A & C2x4|[B,B]2B [FAc]2c|[FBd]3-[FBd]2!p!f|
w:mu-ses were but nine,* The wor-thies three times three;* And
[V:2][D,D]2z[B,,B,]2z|[F,,F,]2zz3|[G,G]2z [F,F]2z|[B,,B,]3-[B,,B,]2z|
[V:1][Fd]cd B2d|[Ac]Bc F2f|[Fd]cB [EAc]2c|[DB]3-[DB]2||
w:three mer-ry boys, And three mer-ry boys, And three mer-ry boys are we.*
[V:2]B,3D3|F3A3|B2D F2F,|B,3B,2||

